static/icon_tool.svg

<svg width="24" height="24" viewBox="0 0 24 24" fill="none" xmlns="http://www.w3.org/2000/svg">
<g id="edit_24px">
<path id="icon/image/edit_24px" fill-rule="evenodd" clip-rule="evenodd" d="M17.6587 3C17.4087 3 17.1487 3.1 16.9587 3.29L15.1287 5.12L18.8787 8.87L20.7087 7.04C21.0987 6.65 21.0987 6.02 20.7087 5.63L18.3687 3.29C18.1687 3.09 17.9187 3 17.6587 3ZM14.0587 9.02L14.9787 9.94L5.91875 19H4.99875V18.08L14.0587 9.02ZM2.99875 17.25L14.0587 6.19L17.8087 9.94L6.74875 21H2.99875V17.25Z" fill="white"/>
</g>
</svg>

<svg fill="none" height="24" viewBox="0 0 24 24" width="24" xmlns="http://www.w3.org/2000/svg"><path clip-rule="evenodd" d="m17.6587 3c-.25 0-.51.1-.7.29l-1.83 1.83 3.75 3.75 1.83-1.83c.39-.39.39-1.02 0-1.41l-2.34-2.34c-.2-.2-.45-.29-.71-.29zm-3.6 6.02.92.92-9.05995 9.06h-.92v-.92zm-11.05995 8.23 11.05995-11.06 3.75 3.75-11.05995 11.06h-3.75z" fill="#fff" fill-rule="evenodd"/></svg>
